!!!!SEGMENT: pl-cz--ii-87--001-003_zientarski-romuald-teodor--msza-swieta-graduale.krn
!!!cenid: 18xx:1164
!!!COM: Zientarski, Romuald Teodor
!!!COM-rismID: pe30001080
!!!CDT: ~1830-1874
!!!CNT: Polish
!!!OPR: Msza Święta
!!!OTL: Graduale
!!!OMV: 003
!!!PDT: 1888
!!!AGN: Sacred; Mass
!!!YEC: Copyright 2022 Narodowy Instytut Fryderyka Chopina (https://polishscores.org)
!!!YEM: License CC-BY-4.0 (https://creativecommons.org/licenses/by/4.0)
!!!SMS-siglum: PL-CZ
!!!SMS-shelfmark: II-87
!!!SMS-shelfwork: 001-003 M
!!!SMS-variant:
!!!SMS-altvar:
!!!NIFC-rismSourceID: 300033223
!!!NIFC-rismChildID: 300033224
!!!NIFC-islandoraID: pl-cz:33881
!!!URL-pdf-islandora: https://repozytorium.nifc.pl/islandora/object/pl-cz%3A33881/datastream/PDF/view
!!!URL-scan: https://polish.musicsources.pl/pl/lokalizacje/galeria/rekopisy/6814/1 @EN{Scan on Polish Music Sources Website} @PL{Skany w portalu Dziedzictwo Muzyki Polskiej w otwartym dostępie}
!!!IIIF:
!!!ONB-nifc: UWAGA: części Mszy: Kyrie, Gloria, Graduale, Credo, Et incarnatus, Et resurrexit,
!!!OMD: Andante
!!!AIN: 1 organ 1 vox
!!!key: B-
**kern	**kern	**dynam	**kern	**text	**dynam
*part2	*part2	*	*part1	*	*
*staff3	*staff2	*	*staff1	*	*
*I"[Organo]	*	*	*I"[Voice]	*	*
*Iorgan	*	*	*Ivox	*	*
*ICklav	*	*	*ICvox	*	*
*IGacmp	*	*	*IGsolo	*	*
*clefF4	*clefG2	*	*clefG2	*	*
*k[b-e-]	*k[b-e-]	*	*k[b-e-]	*	*
*B-:	*B-:	*	*B-:	*	*
*M3/4	*M3/4	*	*M3/4	*	*
=1	=1	=1	=1	=1	=1
*^	*	*	*	*	*
(<4F/	2BB-\	4dd 4f/	.	4dd\	Po-	.
4G/	.	4cc#X 4en/	.	4cc#X\	-wstań-	.
4F/)	4ryy	4dd 4f/	.	4dd\	-my	.
=2	=2	=2	=2	=2	=2	=2
2.B-/	(>2BB-\	(>2ee- (<2g\	.	2ee-\	z_cze-	.
.	8BB-\L	4dd) 4f/)	.	4dd\	-scią	.
.	8D\J)	.	.	.	.	.
=3	=3	=3	=3	=3	=3	=3
*	*	*^	*	*	*	*
(>2A/	(<2F\	4.cc/	(2e-\	.	(>4.cc\	bo	.
.	.	[<8a/	.	.	8a/)	.	.
4F) 4FF/)	4ryy	8dd/L	4a] 4f\)	.	8dd\	Zbaw-	.
.	.	8cc/J	.	.	8cc\	-ca	.
*v	*v	*	*	*	*	*	*
*	*v	*v	*	*	*	*
=4	=4	=4	=4	=4	=4
4F 4BB-/	4b- 4d/	.	4b-\	sam	.
4r	8r	.	4r	.	.
.	(<8f/L	.	.	.	.
4r	8b-/	.	4dd\	Ƶy-	.
.	8dd/J)	.	.	.	.
=5	=5	=5	=5	=5	=5
*^	*^	*	*	*	*
!	!	!	!	!LO:DY:rj	!LO:TX:a:t=Dolce.	!	!LO:DY:b:rj
4r	4ryy	2ff/	4r	f	2ff^\	-wo-	f
[>2B-/	(<2D\	.	2a-X/	.	.	.	.
.	.	(<[4b-\	.	.	4b-\	-ta	.
=6	=6	=6	=6	=6	=6	=6	=6
!	!	!LO:N:vis=4.	!	!	!	!	!
!	!	!LO:N:vis=4.	!	!	!	!	!
2.B-/]	2.E-\)	(>4b-/])	[>4g\	.	(>4b-\	pra-	.
.	.	8ee-/)	8g\]	.	8ee-\)	-wdy	.
.	.	8rffyy	8g\L	.	8r	.	.
.	.	4rffyy	8cc\	.	4ee-\	o-	.
.	.	.	8ee-\J	.	.	.	.
=7	=7	=7	=7	=7	=7	=7	=7
4r	4ryy	2gg/	4r	.	2gg^\	-bja-	.
[>2c/	(<2En\	.	2b-\	.	.	.	.
.	.	4cc\	.	.	4cc\	-wi	.
=8	=8	=8	=8	=8	=8	=8	=8
2c/]	2F\)	(>4cc/	2a\	.	(>4cc\	nam	.
.	.	4ff/)	.	.	4ff\)	.	.
4r	4ryy	4r	4ryy	.	4r	.	.
*v	*v	*	*	*	*	*	*
!!LO:PB:g=original
=9	=9	=9	=9	=9	=9	=9
!LO:S:s=1:note:problem=note-level slur	!	!	!LO:DY:rj	!	!	!LO:DY:b:rj
(<4F (<4FF/	4ff/	4a\	p	4ff\	Swe-	p
4G 4GG/	4een/	4b-\	.	4een\	-go	.
4A) 4AA/)	4ee-X/	4cc\	.	4ee-X\	za-	.
*	*v	*v	*	*	*	*
=10	=10	=10	=10	=10	=10
4B- 4BB-\	2dd 2b-\	.	2dd\	-ko-	.
4A-X 4AA-X\	.	.	.	.	.
8GL (<8GG/	4dd 4bn 4g\	.	4dd\	-nu	.
8F/J)	.	.	.	.	.
=11	=11	=11	=11	=11	=11
*^	*^	*	*	*	*
(>8E-\L	2ryy	8ff/L	4cc 4g\	.	(>8ff\L	wy-	.
8C\J)	.	8ee-/J	.	.	8ee-\J)	.	.
2F/	.	4dd 4b-/	2f\	.	4dd\	-łu-	.
.	4FF/	(<8cc/L	.	.	(>8cc\L	-szczy	.
.	.	8cc#X/J)	.	.	8cc#X\J)	.	.
=12	=12	=12	=12	=12	=12	=12	=12
4F/	4BB-\	4dd/	4b-\	.	4dd\	tresć	.
2r	2ryy	8r	4ryy	.	4r	.	.
.	.	8f/	.	.	.	.	.
.	.	8b-/L	4a-X\	.	4dd\	I	.
.	.	8dd/J	.	.	.	.	.
=13	=13	=13	=13	=13	=13	=13	=13
2.B-/	2BB-\	(>2ff/	(<2a-X\	.	2ff/	przy-	.
.	4D\	4b-/))	4ryy	.	4b-\	-kład	.
*	*	*v	*v	*	*	*	*
=14	=14	=14	=14	=14	=14	=14
2.B-/	2E-\	(<4b-/	.	4b-\	po-	.
.	.	4ee-/)	.	8ee-\	-da	.
.	.	.	.	8r	.	.
.	4En/	4cc#X/	.	8r	.	.
.	.	.	.	8cc#X\	jak	.
=15	=15	=15	=15	=15	=15	=15
!	!	!	!	!	!	!LO:HP:a:t=crescendo
2B-/	2F\	(>2dd (<2f/	.	2dd\	ży-	<
4A/	4FF\	4cc) 4e-/)	.	4cc\	-cie	.
=16	=16	=16	=16	=16	=16	=16
2B-/	2F 2BB-;\	2b- 2f 2d;/	.	2b-;\	niesć.	.
4ryy	4r	4r	.	4r	.	.
*v	*v	*	*	*	*	*
==	==	==	==	==	==
*-	*-	*-	*-	*-	*-
!!!system-decoration: <s1>(s2,s3)
!!!RDF**kern: > = above
!!!RDF**kern: < = below
!!!RDF**dynam: f = "f."
!!!RDF**dynam: p = "p."
!!!ENC: Marcin Jachim
!!!END: 2020-11-06
!!!ENC: Andrzej Kubiczek
!!!END: 2021-11-14
